!!!COM: Haydn, Franz Joseph
!!!OTL: Quartet 
!!!ONM: Opus 54, No. 1
!!!OMV: 1
!!!CDT: 1732/3/31/-1809/5/31/
!!!OCY: \O3sterreich
**kern	**kern	**kern	**kern
*clefF4	*clefC3	*clefG	*clefG
*k[f#]	*k[f#]	*k[f#]	*k[f#]
*G:	*G:	*G:	*G:
*M4/4	*M4/4	*M4/4	*M4/4
=1	=1	=1	=1
8G	8B	8b 8d	2.gg
8G	8B	8b 8d	.
8G	8B	8b 8d	.
8G	8B	8b 8d	.
8G	8B	8b 8d	.
8G	8B	8b 8d	.
8G	8B	8b 8d	16ff#
.	.	.	16gg
8G	8B	8b 8d	16bb
.	.	.	16gg
=2	=2	=2	=2
8G	8B	8b 8d	8dd
8G	8B	8d 8b	8dd
8G	8B	8d 8b	8dd
8G	8B	8d 8b	8dd
8G	8B	8b 8d	8dd
8G	8B	8b 8d	8dd
8G	8B	8b 8d	8dd
8G	8B	8b 8d	8dd
=3	=3	=3	=3
8F#	1A	1d 1cc	[2ddd
8F#	.	.	.
8F#	.	.	.
8F#	.	.	.
8F#	.	.	16ddd]
.	.	.	16ccc#
8F#	.	.	16ddd
.	.	.	16ccc#
8F#	.	.	16ddd
.	.	.	16bb
8F#	.	.	16ccc
.	.	.	16aa
=4	=4	=4	=4
4G	8B	4d 4b	4gg
.	8g	.	.
8r	8g	2.r	8r
8B	8g	.	8g
8c	8g	.	8a-
8c#	8g	.	8a
8d	8g	.	8b-
8d#	8g	.	8b
=5	=5	=5	=5
8e	8g	2r	16cc
.	.	.	16dd
8e	8g	.	16cc
.	.	.	16b
8e	8g	.	16cc
.	.	.	16ee
8e	8g	.	16dd
.	.	.	16cc
8d	8g	8r	4b
8d	8g	16ff#	.
.	.	16gg	.
8d	8g	16ff#	4r
.	.	16gg	.
8d	8g	16ff#	.
.	.	16gg	.
=6	=6	=6	=6
8c	8g	2r	16a
.	.	.	16g#
8c	8g	.	16a
.	.	.	16g#
8c	8g	.	16a
.	.	.	16cc
8c	8g	.	16b
.	.	.	16a
8B	8g	8r	4g
8B	8g	16c#	.
.	.	16d	.
8B	8g	16c#	4r
.	.	16d	.
8B	8g	16c#	.
.	.	16d	.
=7	=7	=7	=7
8F#	[1d	1c	[2a
8F#	.	.	.
8F#	.	.	.
8F#	.	.	.
8F#	.	.	16a]
.	.	.	16b-
8F#	.	.	16b
.	.	.	16cc
8F#	.	.	16cc#
.	.	.	16dd
8F#	.	.	16ee
.	.	.	16dd
=8	=8	=8	=8
8G	1d]	2B	16cc
.	.	.	16b
8G	.	.	16a
.	.	.	16g
8G	.	.	16f#
.	.	.	16g
8G	.	.	16a
.	.	.	16g
8F#	.	2c	16a
.	.	.	16b-
8F#	.	.	16b
.	.	.	16cc
8F#	.	.	16cc#
.	.	.	16dd
8F#	.	.	16ee
.	.	.	16dd
=9	=9	=9	=9
8G	[1d	2B	16cc
.	.	.	16b
8G	.	.	16a
.	.	.	16g
8G	.	.	16f#
.	.	.	16g
8G	.	.	16a
.	.	.	16g
8F#	.	2c	16a
.	.	.	16b-
8F#	.	.	16b
.	.	.	16cc
8F#	.	.	16cc#
.	.	.	16dd
8F#	.	.	16ee
.	.	.	16dd
=10	=10	=10	=10
8G	1d]	2B	16cc
.	.	.	16b
8G	.	.	16a
.	.	.	16g
8G	.	.	16f#
.	.	.	16g
8G	.	.	16f#
.	.	.	16g
16BB	.	8g	8gg
16C	.	.	.
16C#	.	8g	8gg
16D	.	.	.
16D#	.	8g	8gg
16E	.	.	.
16F#	.	8g	8gg
16G	.	.	.
=11	=11	=11	=11
8C	16G	8f#	8ff#
.	16F#	.	.
8C	16G	8e	8ee
.	16F#	.	.
8C	16G	8e	8ee
.	16G#	.	.
8C	16A	8e	8ee
.	16G#	.	.
2C	4A	16e	16ee
.	.	16f#	16ff#
.	.	16g	16gg
.	.	16g#	16gg#
.	4r	16a	16aa
.	.	16b	16bb
.	.	16cc	16ccc
.	.	16a	16aa
=12	=12	=12	=12
4D	4.r	4g	4gg
8r	.	8r	8r
8D	8g	8b	8ddd
8D	8g	8b	8ddd
8D	8g	8b	8ddd
8D	8f#	8cc	16ddd
.	.	.	16ccc
8D	8f#	8cc	16bb
.	.	.	16aa
=13	=13	=13	=13
4G	4g	8b	4gg
.	.	8g	.
2.r	8r	8g	8r
.	8B	8g	8gg
.	16B	8g	8gg
.	16c	.	.
.	16c#	8g	8gg
.	16d	.	.
.	16d#	8g	8gg
.	16e	.	.
.	16f#	8g	8gg
.	16g	.	.
=14	=14	=14	=14
1r	8c	16g	8ff#
.	.	16f#	.
.	8c	16g	8ee
.	.	16f#	.
.	8c	16g	8ee
.	.	16g#	.
.	8c	16a	8ee
.	.	16g#	.
.	8c	4a	16ee
.	.	.	16ff#
.	8c	.	16gg
.	.	.	16gg#
.	8c	4r	16aa
.	.	.	16bb
.	8c	.	16ccc
.	.	.	16aa
=15	=15	=15	=15
4.r	4d	4b	4gg
.	8r	8r	8r
8D	8g	8b	8ddd
8D	8g	8b	8ddd
8D	8g	8b	8ddd
8D	8f#	8cc	16ddd
.	.	.	16ccc
8D	8f#	8cc	16bb
.	.	.	16aa
=16	=16	=16	=16
4G	4g	4b	4gg
8r	8r	8r	8r
8D	8d	8d	8d
8D	8d	8d	8d
8D	8d	8d	8d
16D	16d	16d	16d
16C	16c	16c	16c
16BB	16B	16B	16B
16AA	16A	16A	16A
=17	=17	=17	=17
8GG	2G	4G	2G
8GG	.	.	.
8GG	.	2.r	.
8GG	.	.	.
8GG	4F#	.	4A
8GG	.	.	.
8GG	4F	.	4B
8GG	.	.	.
=18	=18	=18	=18
8GG	2E	4r	4c
8GG	.	.	.
8GG	.	2c	2e
8GG	.	.	.
8GG	4F#	.	.
8GG	.	.	.
8GG	4G	4B	4d
8GG	.	.	.
=19	=19	=19	=19
8GG	2B	4B	2g
8GG	.	.	.
8GG	.	4g	.
8GG	.	.	.
8GG	4c	4f#	4a
8GG	.	.	.
8GG	4d	4f	4b
8GG	.	.	.
=20	=20	=20	=20
8GG	4e-	4e-	4cc
8GG	.	.	.
8GG	2f#	2cc	2ee-
8GG	.	.	.
8GG	.	.	.
8GG	.	.	.
8GG	4g	4b-	4dd
8GG	.	.	.
=21	=21	=21	=21
8AA	1e	1g	[2cc#
8AA	.	.	.
8AA	.	.	.
8AA	.	.	.
8AA	.	.	16cc#]
.	.	.	16dd
8AA	.	.	16cc#
.	.	.	16dd
8AA	.	.	16cc#
.	.	.	16dd
8AA	.	.	16ee
.	.	.	16cc#
=22	=22	=22	=22
8D	4d	4f#	4dd
8D	.	.	.
8A	16e	4g	16cc#
.	16d	.	16dd
8A	16c#	.	16ee
.	16e	.	16cc#
8d	8d	8f#	8dd
8d	8d	8f#	8dd
8A	16e	8g	16cc#
.	16d	.	16dd
8A	16c#	8g	16ee
.	16e	.	16cc#
=23	=23	=23	=23
4d	4d	4f#	8dd
.	.	.	8r
4d	4d	4f#	8dd
.	.	.	8r
4d	4d	4f#	8dd
.	.	.	4.r
4r	4r	4r	.
=24	=24	=24	=24
8G	8g	8b	2.gg
8G	8g	8b	.
8G	8g	8b	.
8G	8g	8b	.
8G	8g	8b	.
8G	8g	8b	.
8G	8g	8b	16ff#
.	.	.	16gg
8G	8g	8b	16bb
.	.	.	16gg
=25	=25	=25	=25
8G	8g	8b	8dd
8G	8g	8b	8dd
8G	8g	8b	8dd
8G	8g	8b	8dd
8G	8g	8b	8dd
8G	8g	8b	8dd
8G	8g	8b	8dd
8G	8g	8b	8dd
=26	=26	=26	=26
8AA	8e	8g	8cc#
8AA	8g	8cc#	8eee
8AA	8g	8cc#	[4eee
8AA	8g	8cc#	.
8AA	8g	8cc#	16eee]
.	.	.	16ccc#
8AA	8g	8cc#	16ddd
.	.	.	16bb
8AA	8g	8cc#	16ccc#
.	.	.	16aa
8AA	8e	8cc#	16bb
.	.	.	16gg
=27	=27	=27	=27
4D	4d	4dd	8ff#
.	.	.	8aa
2.r	8r	8r	8aa
.	8f#	8dd	8aa
.	16f#	16dd	[2aa
.	16a	16ff#	.
.	16g	16ee	.
.	16f#	16dd	.
.	16e	16cc#	.
.	16g	16ee	.
.	16f#	16dd	.
.	16e	16cc#	.
=28	=28	=28	=28
1r	4f#	4dd	16aa]
.	.	.	16bb
.	.	.	16ccc#
.	.	.	16ddd
.	8r	8r	8aa
.	8f#	8dd	8aa
.	16f#	16dd	[2aa
.	16a	16ff#	.
.	16g	16ee	.
.	16f#	16dd	.
.	16e	16cc#	.
.	16g	16ee	.
.	16f#	16dd	.
.	16e	16cc#	.
=29	=29	=29	=29
1r	4f#	4dd	16aa]
.	.	.	16bb
.	.	.	16ccc#
.	.	.	16ddd
.	8r	8r	8aa
.	8f#	8dd	8aa
.	16f#	16dd	[2aa
.	16a	16ff#	.
.	16g	16ee	.
.	16f#	16dd	.
.	16e	16cc#	.
.	16g	16ee	.
.	16f#	16dd	.
.	16e	16cc#	.
=30	=30	=30	=30
1r	16d	1b	8aa]
.	16e	.	.
.	16f	.	8gg#
.	16e	.	.
.	16d	.	8gg#
.	16e	.	.
.	16f	.	8gg#
.	16e	.	.
.	16d	.	8aa
.	16e	.	.
.	16f	.	8gg#
.	16e	.	.
.	16d	.	8gg#
.	16f	.	.
.	16e	.	8gg#
.	16d	.	.
=31	=31	=31	=31
1AA	16c#	16e	8b 8bb
.	16d	16f#	.
.	16e	16g	8a 8aa
.	16d	16f#	.
.	16c#	16e	8aa 8a
.	16d	16f#	.
.	16e	16g	8aa 8a
.	16d	16f#	.
.	16c#	16e	8bb 8b
.	16d	16f#	.
.	16e	16g	8aa 8a
.	16d	16f#	.
.	16c#	16e	8aa 8a
.	16e	16g	.
.	16d	16f#	8aa 8a
.	16c#	16e	.
=32	=32	=32	=32
4D	8d	8f#	16aa
.	.	.	16ff#
.	8r	8r	16ddd
.	.	.	16ccc#
2.r	8f#	8a	16ddd
.	.	.	16aa
.	8r	8r	16fff#
.	.	.	16eee
.	8a	8dd	16ddd
.	.	.	16ccc#
.	8r	8r	16bb
.	.	.	16aa
.	8dd	8ff#	16gg
.	.	.	16ff#
.	8r	8r	16ee
.	.	.	16dd
=33	=33	=33	=33
4A	8A	16cc#	4cc#
.	.	16a	.
.	8r	16ee	.
.	.	16dd	.
8r	8c#	16ee	2.r
.	.	16a	.
8A	8r	16gg	.
.	.	16ff#	.
8A	8e	16gg	.
.	.	16ff#	.
8A	8r	16ee	.
.	.	16dd	.
16A	8g	16cc#	.
16G	.	16b	.
16F#	8r	16a	.
16E	.	16g	.
=34	=34	=34	=34
4D	8d	8f#	16aa
.	.	.	16ff#
.	8r	8r	16ddd
.	.	.	16ccc#
2.r	8f#	8a	16ddd
.	.	.	16aa
.	8r	8r	16fff#
.	.	.	16eee
.	8a	8dd	16ddd
.	.	.	16ccc#
.	8r	8r	16bb
.	.	.	16aa
.	8dd	8ff#	16gg
.	.	.	16ff#
.	8r	8r	16ee
.	.	.	16dd
=35	=35	=35	=35
4A	8A	16cc#	4cc#
.	.	16a	.
.	8r	16ee	.
.	.	16dd	.
8r	8c#	16ee	2.r
.	.	16a	.
8AA	8r	16gg	.
.	.	16ff#	.
8AA	8e	16gg	.
.	.	16ff#	.
8AA	8r	16ee	.
.	.	16dd	.
16AA	8g	16cc#	.
16GG	.	16b	.
16FF#	8r	16a	.
16EE	.	16g	.
=36	=36	=36	=36
2DD	8d	8f#	16aa
.	.	.	16ff#
.	8r	8r	16ddd
.	.	.	16ccc#
.	8f#	8a	16ddd
.	.	.	16aa
.	8r	8r	16fff#
.	.	.	16eee
2F#	8a	8dd	16ddd
.	.	.	16ccc#
.	8r	8r	16bb
.	.	.	16aa
.	8d	8ff#	16gg
.	.	.	16ff#
.	8r	8r	16ee
.	.	.	16dd
=37	=37	=37	=37
8G	4G	2d	2cc#
8G	.	.	.
8G	2.r	.	.
8G	.	.	.
8G	.	4d#	4cc
8G	.	.	.
8G	.	4e	4b
8G	.	.	.
=38	=38	=38	=38
4A	4d	4f#	16a
.	.	.	16b-
.	.	.	16b
.	.	.	16cc
2.r	2.r	2.r	16cc#
.	.	.	16dd
.	.	.	16ee
.	.	.	16ff
.	.	.	16ff#
.	.	.	16gg
.	.	.	16gg#
.	.	.	16aa
.	.	.	16aa#
.	.	.	16bb
.	.	.	16gg
.	.	.	16ee
=39	=39	=39	=39
8A	2d	2f#	4..dd
8A	.	.	.
8A	.	.	.
8A	.	.	.
.	.	.	16a
8AA	2c#	2g	2ee
8AA	.	.	.
8AA	.	.	.
8AA	.	.	.
=40	=40	=40	=40
4D	4d	4f#	4dd
2.r	8r	8r	8r
.	8f#	8a	8dd
.	16e	16g	16cc#
.	16r	16r	16r
.	8d	8f#	8b
.	16c#	16e	16a
.	16r	16r	16r
.	8B	8d	8g#
=41	=41	=41	=41
4.r	4A	8.c#	8b
.	.	.	8a
.	.	4r	.
.	8r	.	16a
.	.	.	16r
8B	8d	.	8g
.	.	16r	.
16A	16c#	=42	16f#
.	.	2r	.
16r	16r	.	16r
8G	8B	.	8e
16F#	16A	.	16d
16r	16r	.	16r
8E	8G	.	8c#
=42	=42	.	=42
8D	4F#	4A	8e
4r	.	.	8d
.	2.r	4r	16d
.	.	.	16r
8C#	.	.	8e
16E	.	=43	16g
.	.	2d	.
16r	.	.	16r
8D	.	.	8f#
16F#	.	.	16a
16r	.	.	16r
8E	.	.	8g
=43	=43	.	=43
2GG 2G	2g	2g	4.b
.	.	.	8ee
2AA	4.e	=44	4.cc#
.	.	4f#	.
.	.	8r	.
.	16d	.	16b
.	.	8dd	.
.	16e	.	16cc#
=44	=44	.	=44
8D	4d	16cc#	4dd
.	.	16dd	.
8D	.	16cc#	.
.	.	16dd	.
8D	4r	16cc#	8r
.	.	16ee	.
8D	.	16dd	8aa
.	.	16cc#	.
8D	2g	=45	8aa
.	.	4dd	.
8D	.	.	8aa
8D	.	.	16aa
.	.	8r	.
.	.	.	16gg
8D	.	.	16ff#
.	.	8d	.
.	.	.	16ee
=45	=45	.	=45
8D	4f#	16c#	4dd
.	.	16d	.
8D	.	16c#	.
.	.	16d	.
8D	4r	16c#	8r
.	.	16e	.
8D	.	16d	8a
.	.	16c#	.
8D	2G	=46	8a
.	.	4d	.
8D	.	.	8a
8D	.	.	16a
.	.	8r	.
.	.	.	16g
8D	.	.	16f#
.	.	8d	.
.	.	.	16e
=46	=46	.	=46
8D	4F#	8d	4d
8D	.	8d	.
8D	8r	16d	8r
.	.	16e	.
8D	8A	16f#	8f#
.	.	16g	.
8D	8A	=47	8f#
.	.	4a	.
8D	8A	.	8f#
8D	16A	.	16f#
.	.	2.r	.
.	16G	.	16g
8D	16F#	.	16a
.	16E	.	16b
=47	=47	.	=47
4D	4D	.	4.cc
2.r	2.r	.	.
.	.	.	8cc#
.	.	=48	8dd
.	.	8b- 8d	.
.	.	.	8dd#
.	.	8b- 8d	.
.	.	.	8ee
.	.	8d 8b-	.
.	.	.	8ff#
.	.	8b- 8d	.
=48	=48	.	=48
8GG	8B-	8d 8b-	2.gg
8G	8B-	8b- 8d	.
8G	8B-	8d 8b-	.
8G	8B-	8b- 8d	.
8G	8B-	=49	.
.	.	8d 8b-	.
8G	8B-	.	.
.	.	8b- 8d	.
8G	8B-	.	16ff#
.	.	8d 8b-	.
.	.	.	16gg
8G	8B-	.	16bb-
.	.	8b- 8d	.
.	.	.	16gg
=49	=49	.	=49
8G	8B-	8d 8b-	8dd
8G	8B-	8b- 8d	8dd
8G	8B-	8b- 8d	8dd
8G	8B-	8b- 8d	8dd
8G	8B-	=50	8dd
.	.	8b- 8d	.
8G	8B-	.	8dd
.	.	8d 8b-	.
8G	8B-	.	8dd
.	.	8d 8b-	.
8G	8B-	.	8dd
.	.	8b- 8d	.
=50	=50	.	=50
8F	8a-	8b- 8d	[2ddd
8F	8a-	8b- 8d	.
8F	8a-	8d 8b-	.
8F	8a-	8b- 8d	.
8F	8a-	=51	16ddd]
.	.	4b- 4e-	.
.	.	.	16ccc#
8F	8a-	.	16ddd
.	.	.	16ccc#
8F	8a-	.	16ddd
.	.	8r	.
.	.	.	16bb-
8F	8a-	.	16ccc
.	.	8ee-	.
.	.	.	16ddd
=51	=51	.	=51
8E-	4g	16dd	4eee-
.	.	16ee-	.
8E-	.	16dd	.
.	.	16ee-	.
8E-	8r	16dd	8r
.	.	16ff	.
8E-	8g	16ee-	8bb-
.	.	16dd	.
8BB-	16f	=52	8bb-
.	.	4ee-	.
.	16g	.	.
8BB-	16f	.	8bb-
.	16g	.	.
8BB-	8f	.	16bb-
.	.	8r	.
.	.	.	16aa-
8BB-	8a-	.	16gg
.	.	8e-	.
.	.	.	16ff
=52	=52	.	=52
8EE-	4g	16d	4ee-
.	.	16e-	.
8EE-	.	16d	.
.	.	16e-	.
8EE-	8r	16d	8r
.	.	16f	.
8EE-	8G	16e-	8b-
.	.	16d	.
8BB-	16F	=53	8b-
.	.	2e-	.
.	16G	.	.
8BB-	16F	.	8b-
.	16G	.	.
8BB-	8F	.	16b-
.	.	.	16a-
8BB-	8A-	.	16g
.	.	.	16f
=53	=53	.	=53
8E-	2G	4d	2e-
8E-	.	.	.
8E-	.	4c#	.
8E-	.	.	.
8E-	4A-	=54	4f
.	.	4c	.
8E-	.	.	.
8E-	4B-	.	4g
.	.	2g#	.
8E-	.	.	.
=54	=54	.	=54
8E-	2c	.	4a-
8E-	.	.	.
8E-	.	4g	2cc
8E-	.	.	.
8E-	4d	=55	.
.	.	2ee-	.
8E-	.	.	.
8E-	4e-	.	4b-
8E-	.	.	.
=55	=55	.	=55
8e-	4E-	4dd	2ee-
8e-	.	.	.
8e-	2.r	4dd-	.
8e-	.	.	.
8e-	.	=56	4ff
.	.	4cc	.
8e-	.	.	.
8e-	.	.	4gg
.	.	2aa-	.
8e-	.	.	.
=56	=56	.	=56
8e-	1r	.	4aa-
8e-	.	.	.
8e-	.	4gg	2ccc
8e-	.	.	.
8e	.	=57	.
.	.	4ee-	.
8e	.	.	.
8e	.	.	4bb-
.	.	2gg-	.
8e	.	.	.
=57	=57	.	=57
8f	4cc	.	[1aa
8f	.	.	.
8f	2ee-	4ff	.
8f	.	.	.
8f	.	=58	.
.	.	4ee-	.
8f	.	.	.
8f	4dd-	.	.
.	.	2ee-	.
8f	.	.	.
=58	=58	.	=58
8f#	4cc	.	4aa]
8f#	.	.	.
8f#	2a	4dd	2ccc
8f#	.	.	.
8f#	.	=59	.
.	.	4cc	.
8f#	.	.	.
8f#	4b-	.	4bb-
.	.	2cc	.
8f#	.	.	.
=59	=59	.	=59
4f#	4cc	.	4aa
2f#	2ee-	4cc	2aa
.	.	=60	.
.	.	1cc	.
4g	4ee-	.	4gg
=60	=60	.	=60
1a	2ee-	.	4..ff#
.	.	.	16gg
.	[2dd	=61	16ff#
.	.	4b-	.
.	.	.	16gg
.	.	.	16ff#
.	.	.	16gg
.	.	.	16ff#
.	.	8r	.
.	.	.	16gg
.	.	.	16aa
.	.	8gg	.
.	.	.	16ff#
=61	=61	.	=61
8g	4dd]	16ff#	4gg
.	.	16gg	.
8G	.	16ff#	.
.	.	16gg	.
8G	8r	16ff#	8r
.	.	16aa	.
8G	8b-	16gg	8ddd
.	.	16ff#	.
8D	16a	=62	8ddd
.	.	4gg	.
.	16b-	.	.
8D	16a	.	8ddd
.	16b-	.	.
8D	8a	.	16ddd
.	.	8r	.
.	.	.	16ccc
8D	8dd	.	16bb-
.	.	8g	.
.	.	.	16aa
=62	=62	.	=62
8G	4b-	16f#	4gg
.	.	16g	.
8GG	.	16f#	.
.	.	16g	.
8GG	8r	16f#	8r
.	.	16a	.
8GG	8B-	16g	8dd
.	.	16f#	.
8D	16A	=63	8dd
.	.	4g	.
.	16B-	.	.
8D	16A	.	8dd
.	16B-	.	.
8D	8A	.	16dd
.	.	2.r	.
.	.	.	16cc
8D	8d	.	16b-
.	.	.	16a
=63	=63	.	=63
8G	2B-	.	4g
8GG	.	.	.
8GG	.	.	8r
8GG	.	.	8d
8FF	2A	=64	8d
.	.	4.r	.
8FF	.	.	8d
8FF	.	.	16d
.	.	.	16c
8FF	.	.	16B
.	.	8ff	.
.	.	.	16A
=64	=64	.	=64
8EE	2B	8ff	2G#
8EE	.	8ff	.
8EE	.	16ee	.
.	.	16dd	.
8EE	.	16cc	.
.	.	16b	.
8EE	2B 2d	=65	2g#
.	.	2cc	.
8EE	.	.	.
8EE	.	.	.
8EE	.	.	.
=65	=65	.	=65
8EE	2c 2e	2d#	4.a
8EE	.	.	.
8EE	.	.	.
8EE	.	.	8cc
8EE	2A	=66	8cc
.	.	2e	.
8EE	.	.	8cc
8EE	.	.	16b
.	.	.	16a
8EE	.	.	16g#
.	.	.	16a
=66	=66	.	=66
8EE	2G#	4d#	2e
8EE	.	.	.
8EE	.	4d	.
8EE	.	.	.
8EE	4A	=67	4f#
.	.	4c	.
8EE	.	.	.
8EE	4B	.	4g#
.	.	2a	.
8EE	.	.	.
=67	=67	.	=67
8EE	4c	.	4a
8EE	.	.	.
8EE	2d#	4g#	2cc
8EE	.	.	.
8EE	.	=68	.
.	.	2e	.
8EE	.	.	.
8EE	4e	.	4b
8EE	.	.	.
=68	=68	.	=68
8EE	2g#	4f#	2ee
8EE	.	.	.
8EE	.	4g#	.
8EE	.	.	.
8EE	4a	=69	4dd#
.	.	4a	.
8EE	.	.	.
8EE	4b	.	4dd
.	.	2a	.
8EE	.	.	.
=69	=69	.	=69
4EE	4a	.	4cc#
2.r	2d#	4g#	2cc
.	.	=70	.
.	.	4r	.
.	4e	.	4b
.	.	2a	.
=70	=70	.	=70
1r	4r	.	4r
.	2d#	4g#	2cc
.	.	=71	.
.	.	4r	.
.	4e	.	4b
.	.	2cc	.
=71	=71	.	=71
1r	4r	.	4r
.	2a	4b	2dd#
.	.	=72	.
.	.	4r	.
.	4g#	.	4ee
.	.	2b-	.
=72	=72	.	=72
1r	4r	.	4r
.	2g	4a	2cc#
.	.	=73	.
.	.	4r	.
.	4f#	.	4dd
.	.	2G 2f	.
=73	=73	.	=73
4r	4r	.	4r
2GG	2f	4G 4f	2d 2b
.	.	=74	.
.	.	4G 4e	.
4GG	4B	.	4dd
.	.	2.r	.
=74	=74	.	=74
8C	8c	.	2.cc
8C	8e	.	.
8C	8e	.	.
8C	8e	.	.
8C	8e	=75	.
.	.	2.ff	.
8C	8e	.	.
8C	8e	.	16b
.	.	.	16cc
8C	8e	.	16ee
.	.	.	16cc
=75	=75	.	=75
8C	8b 8d	.	8g
8C	8b 8d	.	8g
8C	8b 8d	16ee	8g
.	.	16ff	.
8C	8b 8d	16aa	8g
.	.	16ff	.
8C	8b 8d	=76	8g
.	.	8ee	.
8C	8b 8d	.	8g
.	.	8a	.
8C	8b 8d	.	8g
.	.	8a	.
8C	8b 8d	.	8g
.	.	8a	.
=76	=76	.	=76
8C	8cc 8e	8a	2.gg
8C#	8e	8a	.
8C#	8e	8a	.
8C#	8e	8a	.
8C#	8e	=77	.
.	.	2.a	.
8C#	8e	.	.
8C#	8e	.	16ff#
.	.	.	16gg
8C#	8e	.	16bb
.	.	.	16gg
=77	=77	.	=77
8D	2.f#	.	8dd
8D	.	.	8dd
8D	.	16g#	8dd
.	.	16a	.
8D	.	16b	8dd
.	.	16a	.
8D	.	=78	8dd
.	.	1f#	.
8D	.	.	8dd
8D	16e	.	8dd
.	16f#	.	.
8D	16g	.	8dd
.	16f#	.	.
=78	=78	.	=78
8D#	[1b	.	2.aa
8D#	.	.	.
8D#	.	.	.
8D#	.	.	.
8D#	.	=79	.
.	.	2g	.
8D#	.	.	.
8D#	.	.	16gg#
.	.	.	16aa
8D#	.	.	16ccc
.	.	.	16aa
=79	=79	.	=79
8E	4b]	2a#	2gg
8E	.	.	.
8E	2g	.	.
8E	.	.	.
8C	.	=80	4.ee
.	.	8b	.
8C	.	.	.
.	.	8B	.
8C	4e	.	.
.	.	8B	.
8C	.	.	16dd#
.	.	8B	.
.	.	.	16ee
=80	=80	.	=80
4BB	4f#	8B	4dd#
.	.	8B	.
4.r	4.r	8B	8r
.	.	8B	8b
.	.	=81	8b
.	.	16e	.
.	.	16f#	.
8E	8G	.	8b
.	.	16g	.
.	.	16g#	.
8E	8G	.	16b
.	.	16a	.
.	.	.	16a
.	.	16b	.
8E	8G	.	16g
.	.	16cc	.
.	.	.	16f#
.	.	16b	.
=81	=81	.	=81
16E	16G	4cc	4e
16D	16F#	.	.
16C	16E	.	.
16BB	16D	.	.
4AA	4C	8r	8r
.	.	8e	8ee
8r	8r	=82	8ee
.	.	16a	.
.	.	16b	.
8A	8c	.	8ee
.	.	16cc	.
.	.	16cc#	.
8A	8c	.	16ee
.	.	16dd	.
.	.	.	16dd
.	.	16ee	.
8A	8c	.	16cc
.	.	16ff#	.
.	.	.	16b
.	.	16gg	.
=82	=82	.	=82
16A	16c	4ff#	4a
16G	16B	.	.
16F#	16A	.	.
16E	16G	.	.
4D	4F#	4r	8r
.	.	.	8aa
8r	8r	=83	8aa
.	.	2r	.
8d	8f#	.	8aa
8d	8f#	.	16aa
.	.	.	16gg
8d	8f#	.	16ff#
.	.	.	16ee
=83	=83	.	=83
16d	16f#	8r	4dd
16c	16e	.	.
16B	16d	8b	.
16A	16c	.	.
4G	4B	8b	8r
.	.	8b	8ddd
2r	8r	=84	8ddd
.	.	16b	.
.	.	16a	.
.	8g	.	8ddd
.	.	16g	.
.	.	16f#	.
.	8g	.	16ddd
.	.	8e	.
.	.	.	16ccc
.	8g	.	16bb
.	.	8r	.
.	.	.	16aa
=84	=84	.	=84
1r	16g	16cc	8gg
.	16f#	16b	.
.	16e	16a	8r
.	16d	16g	.
.	8c	8f#	16eee
.	.	.	16ddd
.	8r	8r	16ccc
.	.	.	16bb
.	16a	=85	8aa
.	.	16cc	.
.	16g	.	.
.	.	16b	.
.	16f#	.	8r
.	.	16a	.
.	16e	.	.
.	.	16g	.
.	8d	.	16ccc
.	.	8f#	.
.	.	.	16bb
.	8r	.	16aa
.	.	8r	.
.	.	.	16gg
=85	=85	.	=85
16D	16f#	16cc	8ff#
16E	16g	16b	.
16F#	16a	16a	8r
16G	16b	16g	.
8A	8cc	8f#	16ccc
.	.	.	16bb
8r	8r	8r	16aa
.	.	.	16gg
16D	16F#	=86	8ff#
.	.	16cc	.
16E	16G	.	.
.	.	16b	.
16F#	16A	.	8r
.	.	16cc	.
16G	16B	.	.
.	.	16b	.
8A	8c	.	16ccc
.	.	16cc	.
.	.	.	16bb
.	.	16dd	.
8r	8r	.	16aa
.	.	16ee	.
.	.	.	16gg
.	.	16dd	.
=86	=86	.	=86
1D	16a	2cc	[2ff#
.	16g#	.	.
.	16a	.	.
.	16g#	.	.
.	16a	.	.
.	16b	.	.
.	16cc	.	.
.	16b	.	.
.	2a	=87	16ff#]
.	.	8d 8b	.
.	.	.	16gg
.	.	.	16ff#
.	.	8d 8b	.
.	.	.	16gg
.	.	.	16ff#
.	.	8b 8d	.
.	.	.	16gg
.	.	.	16aa
.	.	8b 8d	.
.	.	.	16ff#
=87	=87	.	=87
8G	8B	8d 8b	2.gg
8G	8B	8b 8d	.
8G	8B	8b 8d	.
8G	8B	8d 8b	.
8G	8B	=88	.
.	.	8b 8d	.
8G	8B	.	.
.	.	8d 8b	.
8G	8B	.	16ff#
.	.	8b 8d	.
.	.	.	16gg
8G	8B	.	16bb
.	.	8b 8d	.
.	.	.	16gg
=88	=88	.	=88
8G	8B	8d 8b	8dd
8G	8B	8b 8d	8dd
8G	8B	8b 8d	8dd
8G	8B	8b 8d	8dd
8G	8B	=89	8dd
.	.	1d 1cc	.
8G	8B	.	8dd
8G	8B	.	8dd
8G	8B	.	8dd
=89	=89	.	=89
8F#	1A	.	[2ddd
8F#	.	.	.
8F#	.	.	.
8F#	.	.	.
8F#	.	=90	16ddd]
.	.	4d 4b	.
.	.	.	16ccc#
8F#	.	.	16ddd
.	.	.	16ccc#
8F#	.	.	16ddd
.	.	2.r	.
.	.	.	16bb
8F#	.	.	16ccc
.	.	.	16aa
=90	=90	.	=90
4G	8B	.	4gg
.	8g	.	.
8r	8g	.	8r
8B	8g	.	8g
8c	8g	=91	8a-
.	.	2r	.
8c#	8g	.	8a
8d	8g	.	8b-
8d#	8g	.	8b
=91	=91	.	=91
8e	8g	8r	16cc
.	.	.	16dd
8e	8g	16ff#	16cc
.	.	16gg	16b
8e	8g	16ff#	16cc
.	.	16gg	16ee
8e	8g	16ff#	16dd
.	.	16gg	16cc
8d	8g	=92	4b
.	.	2r	.
8d	8g	.	.
8d	8g	.	4r
8d	8g	.	.
=92	=92	.	=92
8c	8g	8r	16a
.	.	.	16g#
8c	8g	16c#	16a
.	.	16d	16g#
8c	8g	16c#	16a
.	.	16d	16cc
8c	8g	16c#	16b
.	.	16d	16a
8B	8g	=93	4g
.	.	1c	.
8B	8g	.	.
8B	8g	.	4r
8B	8g	.	.
=93	=93	.	=93
8F#	[1d	.	[2a
8F#	.	.	.
8F#	.	.	.
8F#	.	.	.
8F#	.	=94	16a]
.	.	2B	.
.	.	.	16b-
8F#	.	.	16b
.	.	.	16cc
8F#	.	.	16cc#
.	.	.	16dd
8F#	.	.	16ee
.	.	.	16dd
=94	=94	.	=94
8G	1d]	2c	16cc
.	.	.	16b
8G	.	.	16a
.	.	.	16g
8G	.	.	16f#
.	.	.	16g
8G	.	.	16a
.	.	.	16g
8F#	.	=95	16a
.	.	2B	.
.	.	.	16b-
8F#	.	.	16b
.	.	.	16cc
8F#	.	.	16cc#
.	.	.	16dd
8F#	.	.	16ee
.	.	.	16dd
=95	=95	.	=95
8G	2.d	[2g	16cc
.	.	.	16b
8G	.	.	16a
.	.	.	16g
8G	.	.	16f#
.	.	.	16g
8G	.	.	16f#
.	.	.	16g
8F	.	=96	16b
.	.	1g]	.
.	.	.	16cc
8F	.	.	16dd
.	.	.	16ee
8F	4B	.	16ff
.	.	.	16gg
8F	.	.	16aa
.	.	.	16gg
=96	=96	.	=96
8E	2c	.	16ff
.	.	.	16ee
8E	.	.	16dd
.	.	.	16cc
8E	.	.	16b
.	.	.	16cc
8E	.	.	16b
.	.	.	16cc
8AA	4e	=97	16cc#
.	.	4f#	.
.	.	.	16dd
8AA	.	.	16ee
.	.	.	16ff#
8AA	4c#	.	16gg
.	.	4r	.
.	.	.	16aa
8AA	.	.	16bb
.	.	.	16aa
=97	=97	.	=97
2D	4d	16f#	16gg
.	.	16g	16ff#
.	.	16a	16ee
.	.	16b	16dd
.	4r	16cc	16cc#
.	.	16dd	16dd
.	.	16ee	16cc#
.	.	16dd	16dd
2r	16d	=98	8ccc
.	.	16cc	.
.	16e	.	.
.	.	16b	.
.	16f#	.	8r
.	.	16a	.
.	16g	.	.
.	.	16g	.
.	16a	.	8aa
.	.	8f#	.
.	16b	.	.
.	16cc	.	8r
.	.	8r	.
.	16b	.	.
=98	=98	.	=98
16D	16a	16f#	16ff#
16E	16g	16g	16gg
16F#	16f#	16a	16aa
16G	16e	16b	16bb
16A	8d	16cc	16ccc
16B	.	16dd	16ddd
16c	8r	16ee	16eee
16B	.	16dd	16ddd
16A	16d	=99	16ccc
.	.	16cc	.
16G	16e	.	16bb
.	.	16b	.
16F#	16f#	.	16aa
.	.	16a	.
16E	16g	.	16gg
.	.	16g	.
8D	16a	.	8ff#
.	.	8f#	.
.	16b	.	.
8r	16cc	.	8r
.	.	8r	.
.	16b	.	.
=99	=99	.	=99
16D	16a	16f#	16ff#
16E	16g	16g	16gg
16F#	16f#	16a	16aa
16G	16e	16b	16bb
16A	8d	16cc	16ccc
16B	.	16dd	16ddd
16c	8r	16ee	16eee
16B	.	16dd	16ddd
16A	16d	=100	16ccc
.	.	16cc	.
16G	16e	.	16bb
.	.	16b	.
16F#	16f#	.	16aa
.	.	16a	.
16E	16g	.	16gg
.	.	16g	.
8D	16a	.	8ff#
.	.	8f#	.
.	16b	.	.
8r	16cc	.	8r
.	.	2r	.
.	16b	.	.
=100	=100	.	=100
16D	16a	.	16f#
16E	16g	.	16g
16F#	16f#	.	16a
16G	16e	.	16b
16A	8d	.	16cc
16B	.	.	16dd
16c	8r	8r	16ee
16B	.	.	16dd
16A	4D	=101	16cc
.	.	1G	.
16G	.	.	16b
16F#	.	.	16a
16E	.	.	16g
16D	4F#	.	16f#
16C	.	.	16e
16BB	.	.	16d
16AA	.	.	16c
=101	=101	.	=101
16GG	4G	.	2.B-
16AA	.	.	.
16BB-	.	.	.
16C	.	.	.
16D	2.r	.	.
16E-	.	.	.
16D	.	.	.
16C	.	.	.
16D	.	=102	.
.	.	1B-	.
16C	.	.	.
16BB-	.	.	.
16AA	.	.	.
16GG	.	.	8c
16FF	.	.	.
16EE-	.	.	8d
16DD	.	.	.
=102	=102	.	=102
2CC	16G	.	2e-
.	16F#	.	.
.	16G	.	.
.	16F#	.	.
.	16G	.	.
.	16A	.	.
.	16B-	.	.
.	16A	.	.
2CC#	16G	=103	2e
.	.	4A	.
.	16F#	.	.
.	16G	.	.
.	16F#	.	.
.	16G	.	.
.	.	8r	.
.	16B-	.	.
.	16A	.	.
.	.	16f#	.
.	16G	.	.
.	.	16e	.
=103	=103	.	=103
8DD	4F#	16f#	16d
.	.	16d	16A
8r	.	16a	16f#
.	.	16g	16e
8D	2.r	16a	16f#
.	.	16f#	16d
8r	.	16a	16a
.	.	16b	16g
8D	.	=104	16a
.	.	16cc	.
.	.	.	16d
.	.	16a	.
8r	.	.	16cc
.	.	16cc	.
.	.	.	16b
.	.	16b	.
8D	.	.	16cc
.	.	16cc	.
.	.	.	16a
.	.	16a	.
8r	.	.	16ff#
.	.	16aa	.
.	.	.	16gg
.	.	16gg	.
=104	=104	.	=104
8D	2r	16aa	16ff#
.	.	16gg	16dd
8r	.	16ff#	16aa
.	.	16ee	16gg
8D	.	16dd	16aa
.	.	16cc	16ff#
8r	.	16b	16ccc
.	.	16a	16bb
2D	2F#	=105	16ccc
.	.	4g	.
.	.	.	16bb
.	.	.	16aa
.	.	.	16gg
.	.	.	16ff#
.	.	4r	.
.	.	.	16ee
.	.	.	16dd
.	.	.	16cc
=105	=105	.	=105
4G	4G	4g	16b
.	.	.	16dd
.	.	.	16cc#
.	.	.	16dd
4r	4r	4r	16cc#
.	.	.	16dd
.	.	.	16cc#
.	.	.	16dd
4C	4c	=106	16dd#
.	.	4..B	.
.	.	.	16ee
.	.	.	16dd#
.	.	.	16ee
4r	4r	.	16dd
.	.	.	16b
.	.	.	16cc
.	.	.	16a
.	.	16g	.
=106	=106	.	=106
8D	2d	2f#	4..g
8D	.	.	.
8D	.	.	.
8D	.	.	.
.	.	.	16d
8D	2c	=107	2a
.	.	4g	.
8D	.	.	.
8D	.	.	.
.	.	8r	.
8D	.	.	.
.	.	8dd	.
=107	=107	.	=107
4GG	4B	16cc	4g
.	.	16r	.
.	.	8b	.
2.r	8r	16a	8r
.	.	16r	.
.	8b	8g	8gg
.	16a	=108	16ff#
.	.	4f#	.
.	16r	.	16r
.	8g	.	8ee
.	16f#	.	16dd
.	.	2.r	.
.	16r	.	16r
.	8e	.	8cc#
=108	=108	.	=108
4.r	8d	.	8ee
.	4r	.	8dd
.	.	.	16dd
.	.	.	16r
8e	8g	.	8cc
16d	16f#	=109	16b
.	.	4.r	.
16r	16r	.	16r
8c	8e	.	8a
16B	16d	.	16g
16r	16r	.	16r
8A	8c	.	8f#
.	.	8f#	.
=109	=109	.	=109
4G	4B	16a	8a
.	.	16r	.
.	.	8g	8g
2.r	2.r	16b	16g
.	.	16r	16r
.	.	8a	8a
.	.	=110	16cc
.	.	2cc	.
.	.	.	16r
.	.	.	8b
.	.	.	16dd
.	.	.	16r
.	.	.	8cc
=110	=110	.	=110
2C	2g	4..a	4..ee
.	.	32g	16aa
.	.	32a	.
2D	4..cc	=111	4..ff#
.	.	4b	.
.	.	8r	.
.	.	8gg	.
.	32b	.	32ee
.	32cc	.	32ff#
=111	=111	.	=111
4G	4b	16ff#	4gg
.	.	16r	.
.	.	8ee	.
2.r	8r	16dd	4.r
.	.	16r	.
.	8b	8cc#	.
.	16a	=112	.
.	.	8ee	.
.	16r	.	.
.	8g	.	8aa
.	.	8dd	.
.	16f#	.	8aa
.	.	16dd	.
.	16r	.	.
.	.	16r	.
.	8e	.	8aa
.	.	8cc	.
=112	=112	.	=112
4.r	4d	16b	16aa
.	.	16r	16gg
.	.	8a	16ff#
.	.	.	16ee
.	8r	16g	8dd
.	.	16r	.
8e	8g	8f#	4r
16d	16f#	=113	.
.	.	8a	.
16r	16r	.	.
8c	8e	.	8dd
.	.	8g	.
16B	16d	.	8dd
.	.	8g	.
16r	16r	.	.
8A	8c	.	8dd
.	.	2r	.
=113	=113	.	=113
4G	4B	.	16dd
.	.	.	16cc
.	.	.	16b
.	.	.	16a
8r	2.r	.	8g
8F#	.	8a	8a
16A	.	=114	16cc
.	.	16cc	.
16r	.	.	16r
.	.	16r	.
8G	.	.	8b
.	.	8b	.
16B	.	.	16dd
.	.	16dd	.
8.r	.	.	16r
.	.	2r	.
.	.	.	8cc
=114	=114	.	=114
2..r	4.r	.	16ee
.	.	.	16r
.	.	.	8dd
.	.	.	16ff
.	.	16r	16r
.	8b	8ff#	8dd#
.	16cc	=115	16ee
.	.	2aa	.
.	16r	.	16r
.	8a	.	8ff#
.	16b	.	16gg
.	16r	.	16r
8d	8cc	.	8aa
=115	=115	.	=115
2d#	2f#	8gg	2ccc
.	.	8g	.
.	.	8g	.
.	.	8g	.
2e	2g	=116	2bb
.	.	4.g	.
.	.	8g#	.
=116	=116	.	=116
8c	8e	16a	16aa
.	.	16g#	16gg#
8c	8e	16a	16aa
.	.	16g#	16gg#
8c	8e	16a	16aa
.	.	16b	16bb
8c	8e	16cc	16ccc
.	.	16b	16bb
8c	8e	=117	8aa
.	.	8a	.
8c	8e	.	4.r
.	.	8f#	.
8c	8e	.	.
.	.	8f#	.
8c	8e	.	.
.	.	8f#	.
=117	=117	.	=117
8c	8d	16f#	16aa
.	.	16g	16gg#
8c	8d	16a	16aa
.	.	16b	16gg#
8c	8d	16cc	16aa
.	.	16dd	16bb
8c	8d	16ee	16ccc
.	.	16ff#	16bb
8c	8d	=118	8aa
.	.	16gg	.
.	.	16ff#	.
8c	8d	.	8ddd
.	.	16gg	.
.	.	16ff#	.
8c	16f#	.	8ddd
.	.	16gg	.
.	16f#	.	.
.	.	16bb	.
8c	16g	.	8ddd
.	.	16aa	.
.	16a	.	.
.	.	16gg	.
=118	=118	.	=118
16B	4g	16ff#	[1ddd
16A#	.	16ee#	.
16B	.	16ff#	.
16A#	.	16ee#	.
16B	2.r	16ff#	.
16d	.	16aa	.
16c	.	16gg	.
16B	.	16ff#	.
16A	.	=119	.
.	.	16ee	.
16G#	.	.	.
.	.	16dd#	.
16A	.	.	.
.	.	16ee	.
16G#	.	.	.
.	.	16dd#	.
16A	.	.	.
.	.	16ee	.
16c	.	.	.
.	.	16gg	.
16B	.	.	.
.	.	16ff#	.
16A	.	.	.
.	.	16ee	.
=119	=119	.	=119
16G	2r	[2dd	[2ddd]
16F#	.	.	.
16G	.	.	.
16F#	.	.	.
16G	.	.	.
16B	.	.	.
16A	.	.	.
16G	.	.	.
2F#	2a	=120	16ddd]
.	.	4dd]	.
.	.	.	16ccc#
.	.	.	16ddd
.	.	.	16ccc#
.	.	.	16ddd
.	.	8r	.
.	.	.	16eee
.	.	.	16ddd
.	.	8gg	.
.	.	.	16ccc
=120	=120	.	=120
4G	4b	16g	4bb
.	.	16r	.
.	.	8gg	.
8r	8r	16g	8r
.	.	16r	.
8G	8b	8gg	8bb
16E	16g	=121	16ccc
.	.	4g	.
16r	16r	.	16r
8D	8b	.	8bb
16C	16cc	.	16eee
.	.	4r	.
16r	16r	.	16r
8BB-	8d	.	8ddd
=121	=121	.	=121
4AA	4e	4ff#	4ccc#
4r	4r	4r	4r
4D	4A	=122	4ccc
.	.	4r	.
4r	4r	.	4r
.	.	2b	.
=122	=122	.	=122
4r	4r	.	4r
2e	2g	4a	2bb
.	.	=123	.
.	.	2ff#	.
4d#	4f#	.	4aa
=123	=123	.	=123
2d	2a	2gg	2ccc
2e	2g	=124	2bb
.	.	4r	.
.	.	2cc	.
=124	=124	.	=124
4r	4r	.	4r
2c	2e	8dd	2aa
.	.	8ee	.
.	.	=125	.
.	.	4b	.
8B	8d	.	8bb
.	.	4r	.
8A	8c	.	8ccc
=125	=125	.	=125
4d	4d	4cc	4gg
4r	4r	4r	4r
4D	4f#	=126	4aa
.	.	8cc#	.
.	.	8cc#	.
4r	4r	.	4r
.	.	8cc#	.
.	.	8cc#	.
=126	=126	.	=126
8E	8a	8cc#	2.gg
8E	8a	8cc#	.
8E	8a	8cc#	.
8E	8a	8cc#	.
8E	8a	=127	.
.	.	2.b	.
8E	8a	.	.
8E	8a	.	16ff#
.	.	.	16gg
8E	8a	.	16bb
.	.	.	16gg
=127	=127	.	=127
4D	2.g	.	8dd
.	.	.	8dd
2.r	.	16a	8dd
.	.	16b	.
.	.	16cc	8dd
.	.	16b	.
.	.	=128	8dd
.	.	1f# 1a	.
.	.	.	8dd
.	16f#	.	8dd
.	16g	.	.
.	16a	.	8dd
.	16g	.	.
=128	=128	.	=128
8DD	1c	.	[2ddd
8DD	.	.	.
8DD	.	.	.
8DD	.	.	.
8DD	.	=129	16ddd]
.	.	4g 4b	.
.	.	.	16ccc#
8DD	.	.	16ddd
.	.	.	16ccc#
8DD	.	.	16ddd
.	.	8r	.
.	.	.	16bb
8DD	.	.	16ccc
.	.	8g	.
.	.	.	16aa
=129	=129	.	=129
8GG	4B	16f#	4gg
.	.	16g	.
8GG	.	16f#	.
.	.	16g	.
8GG	4r	16f#	8r
.	.	16a	.
8GG	.	16g	8dd
.	.	16f#	.
8GG	2c	=130	8dd
.	.	4g	.
8GG	.	.	8dd
8GG	.	.	16dd
.	.	8r	.
.	.	.	16cc
8GG	.	.	16b
.	.	8g	.
.	.	.	16a
=130	=130	.	=130
8GG	4B	16f#	4g
.	.	16g	.
8GG	.	16f#	.
.	.	16g	.
8GG	8r	16f#	4r
.	.	16a	.
8GG	8d	16b	.
.	.	16cc	.
8GG	8d	=131	4ff# 4a 4d
.	.	4b	.
8GG	8d	.	.
8GG	16d	.	4r
.	.	2.r	.
.	16c	.	.
8GG	16B	.	.
.	16A	.	.
=131	=131	.	=131
4GG	4G	.	4gg 4b 4d
2.r	2.r	.	2.r
.	.	==	.
*	*	*-	*
!!!RWG: This file only contains pitch and duration data.
!!!RWG: Transposing instruments are not transposed.
==	==	==
*-	*-	*-
!!!RWG: This file only contains pitch and duration data.
!!!RWG: Transposing instruments are not transposed.
!!!RWG: Key is interpreted using the Humdrum key tool.
!!!SCA: 
!!!YOR: Trautwein Edition
!!!AGN: chamber; string quartet
!!!AFT: stage1
!!!ENC: F. Bennion
!!!END: 1997/04/15
!!!AST: classical
!!!YEC: Copyright 1994, Center for Computer Assisted Research in the Humanities
!!!YEM: Rights to all derivative electronic formats reserved.
!!!YEM: Refer to licensing agreement for further details.
!!!YEN: United States of America
!!!EED: W.B. Hewlett
!!!KEY: 1967395174
!!!EMD: Converted from MuseData to Humdrum Jul 30, 1999, by Bret Aarden using muse2kern.
!!!VTS: 3200748931
